X: 1456
T: Nev`eser Etüd
C: ?
O: Turkey
F: http://compmusic.upf.edu/node/140
N: neveser--etud--sofyan----ozer_ozel
N: makam= neveser
N: form= etud
N: usul= sofyan = 4/4
M: 4/4
L: 1/16
K: C _7/8B _7/8e ^f ^c
Q: 1/4=81
%%MIDI tuningsystem comma53
d4 defg fgfe dedc  | BcBA Bcde dcBc dedc  | 
w:   |   | 
BcBA GABc defg fgag  | fgag fgfe fgfe fgab  | 
w:   |   | 
agfe fgfe dedc BcBA  | dcBA G4 z8  | 
w:   |   | 
|


